icons/file-check-16.svg

<svg width="16" height="16" viewBox="0 0 16 16" fill="none" xmlns="http://www.w3.org/2000/svg">
<g clip-path="url(#clip0_28_107)">
<path fill-rule="evenodd" clip-rule="evenodd" d="M10.3359 0C10.7999 9.8172e-06 11.2453 0.183724 11.5732 0.512695L14.4873 3.42676C14.8163 3.75475 15 4.20008 15 4.66406V8.25098C15 8.66519 14.6642 9.00098 14.25 9.00098C13.8358 9.00098 13.5 8.66519 13.5 8.25098V6H10.75C10.2859 6 9.84088 5.81549 9.5127 5.4873C9.18451 5.15912 9 4.71413 9 4.25V1.5H3.75C3.6837 1.5 3.62013 1.52636 3.57324 1.57324C3.52636 1.62013 3.5 1.6837 3.5 1.75V14.25C3.5 14.388 3.612 14.5 3.75 14.5H7C7.41421 14.5 7.75 14.8358 7.75 15.25C7.75 15.6642 7.41421 16 7 16H3.75C3.28587 16 2.84088 15.8155 2.5127 15.4873C2.18451 15.1591 2 14.7141 2 14.25V1.75C2 0.784 2.784 0 3.75 0H10.3359ZM10.5 4.25C10.5 4.388 10.612 4.5 10.75 4.5H13.4385L13.4268 4.4873L10.5127 1.57324L10.5 1.56152V4.25Z" fill="black"/>
<path d="M15.2588 10C15.4577 10.0024 15.6481 10.0833 15.7871 10.2256C15.926 10.3679 16.0023 10.56 16 10.7588C15.9976 10.9577 15.9167 11.1481 15.7744 11.2871L11.2168 15.7363C11.0754 15.874 10.8849 15.9507 10.6875 15.9492C10.4901 15.9476 10.3014 15.8675 10.1621 15.7275L8.21875 13.7783C8.08654 13.6359 8.01477 13.4472 8.01855 13.2529C8.02239 13.0587 8.10162 12.8734 8.23926 12.7363C8.37693 12.5992 8.56253 12.5206 8.75684 12.5176C8.95115 12.5145 9.13933 12.587 9.28125 12.7197L10.7002 14.1445L14.7256 10.2129C14.8679 10.074 15.06 9.99767 15.2588 10Z" fill="black"/>
</g>
<defs>
<clipPath id="clip0_28_107">
<rect width="16" height="16" fill="white"/>
</clipPath>
</defs>
</svg>

<svg xmlns="http://www.w3.org/2000/svg" width="16" height="16" fill="none"><g fill="#000" clip-path="url(#a)"><path fill-rule="evenodd" d="M10.336 0c.464 0 .91.184 1.237.513l2.914 2.914c.33.328.513.773.513 1.237v3.587a.75.75 0 0 1-1.5 0V6h-2.75A1.75 1.75 0 0 1 9 4.25V1.5H3.75a.25.25 0 0 0-.25.25v12.5c0 .138.112.25.25.25H7A.75.75 0 0 1 7 16H3.75A1.75 1.75 0 0 1 2 14.25V1.75C2 .784 2.784 0 3.75 0h6.586Zm.164 4.25c0 .138.112.25.25.25h2.688l-.011-.013-2.914-2.914-.013-.011V4.25Z" clip-rule="evenodd"/><path d="M15.259 10a.751.751 0 0 1 .515 1.287l-4.557 4.45a.751.751 0 0 1-1.055-.01L8.22 13.778A.751.751 0 0 1 9.28 12.72l1.42 1.425 4.025-3.932a.75.75 0 0 1 .533-.213Z"/></g><defs><clipPath id="a"><path fill="#fff" d="M0 0h16v16H0z"/></clipPath></defs></svg>
